X:1
T:Our Lord’s Return to Earth Again
T:James M. Kirk, 1894
T:Our Lord’s Return to Earth Again
T:Public Domain
T:Public Domain
T:Public Domain
C:James M. Kirk, 1894
Z:Public Domain
%%score ( 1 2 ) 3
L:1/8
M:4/4
K:G
V:1 treble 
V:2 treble 
V:3 bass 
V:1
 DD | [DG][DG][DG][DA] [GB][GB][DA][DG] | [Gd][Gd][Gd][Gd] [GB]2 [GB][DA] | %3
w: 1.~I am|for the com- ing of the glad mil-|len- nial day, When our bless- èd|
w: 2.~Je- sus’|back will be the an- swer to earth’s|sor- rowing cry, For the know- ledge|
w: 3.~Yes, the|of the Lord shall come to Zi- on|then with joy, And in all His|
w: 4.~Then the|sor- row, pain and death of this dark|world shall cease, In a glor- ious|
 [DG][DG][DG][DA] [GB][GB][DA][DG] | [FA][FA][FA][GB] [FA]2 [GB][DA] | %5
w: Lord shall come and catch His wait- ing|bride a- way. Oh! my heart is|
w: of the Lord shall fill the earth and|sea and sky. God shall take a-|
w: ho- ly mount- ain no- thing hurts or|shall de- stroy. Per- fect peace shall|
w: reign with Je- sus of a thou- sand|years of peace. All the earth is|
 [DG][DG][DG][DA] [GB][GB][DA][DG] | [EG][EA][EG][CE] [B,D]2 [B,G][CA] | %7
w: filled with rap- ture as I la- bor,|watch, and pray, For our Lord is|
w: way all sick- ness and the suf- ferer’s|tears will dry, When our Sav- ior|
w: reign in ev- ery heart, and love with-|out al- loy, Af- ter Je- sus|
w: groan- ing, cry- ing for that day of|sweet re- lease, For our Je- sus|
 [DB]>[DB] [Ec][Ec] [DB]>[DG] [FA]>[DA] | [DG]6 ||"^Refrain" [DB]>[Dc] | %10
w: com- ing back to earth a- gain. *|||
w: will come back to earth a- gain. Oh,|our|Lord is|
w: shall come back to earth a- gain. *|||
w: shall come back to earth a- gain. *|||
 [Gd]>[Gd] [Gd]>[Gd] [Gd]>[Gd] [GB]>[DA] | (D>D E>E D2) [DG]>[DA] | %12
w: ||
w: com- ing back to earth a- gain. Yes,|our * * * * Lord is|
w: ||
w: ||
 [GB]>[GB] [GB]>[GB] [Gd]>[Gd] [GB]>[DG] | (F>F E>E F2) DD | [DG][DG][DG][DA] [GB][GB][DA][DG] | %15
w: |||
w: ing back to earth a- gain. Sa- tan|will * * * * be bound|thou- sand years; we’ll have no tempt- er|
w: |||
w: |||
 [EG][DA][EG][CE] [B,D]2 [B,G][CA] | [DB]>[DB] [Ec][Ec] [DB]>[DG] [FA]>[DA] | [DG]6 |] %18
w: |||
w: then, Af- ter Je- sus shall come|back to earth a- gain. * * *||
w: |||
w: |||
V:2
 DD | x8 | x8 | x8 | x8 | x8 | x8 | x8 | x6 || x2 | x8 | G6 x2 | x8 | A6 x2 | x8 | x8 | x8 | x6 |] %18
w: watch- ing||||||||||||||||||
w: com- ing|||||||||||com-||a|||||
w: ran- somed||||||||||||||||||
w: sin and||||||||||||||||||
V:3
 [G,B,][G,B,] | [G,B,][G,B,][G,B,][G,C] [G,D][G,D][G,C][G,B,] | %2
w: ~ ~|~ ~ ~ ~ ~ ~ ~ ~|
 [G,B,][G,B,][G,B,][G,B,] [G,D]2 [G,D][G,C] | [G,B,][G,B,][G,B,][G,C] [G,D][G,D][G,C][G,B,] | %4
w: ~ ~ ~ ~ ~ ~ ~|~ ~ ~ ~ ~ ~ ~ ~|
 [D,D][D,D][D,D][D,D] [D,D]2 [G,D][G,C] | [G,B,][G,B,][G,B,][G,C] [G,D][G,D][G,C][G,B,] | %6
w: ~ ~ ~ ~ ~ ~ ~|~ ~ ~ ~ ~ ~ ~ ~|
 [C,C][C,C][C,C][C,G,] [G,,G,]2 [G,,G,][G,,G,] | G,>G, [C,G,][C,G,] [D,G,]>[D,B,] [D,C]>[D,C] | %8
w: ~ ~ ~ ~ ~ ~ ~|~ ~ ~ ~ ~ ~ ~ ~|
 [G,,B,]6 || G,>[G,A,] | [G,B,]>[G,B,] [G,B,]>[G,B,] [G,B,]>[G,B,] [G,D]>[G,C] | %11
w: ~|~ ~|~ ~ ~ ~ ~ is com- ing|
 [G,B,]>[G,B,] [C,C]>[C,C] [G,B,]2 [G,B,]>[G,C] | %12
w: back to earth a- gain ~ ~|
 [G,D]>[G,D] [G,D]>[G,D] [G,B,]>[G,B,] [G,D]>[G,B,] | %13
w: ~ ~ ~ ~ ~ is com- ing|
 [D,D]>[D,D] [A,,^C]>[A,,C] [D,D]2 [F,=C][F,C] | [G,B,][G,B,][G,B,][G,C] [G,D][G,D][G,C][G,B,] | %15
w: back to earth a- gain * *||
 [C,C][C,C][C,C][C,G,] [G,,G,]2 [G,,G,][G,,G,] | G,>G, [C,G,][C,G,] [D,G,]>[D,B,] [D,C]>[D,C] | %17
w: ||
 [G,,B,]6 |] %18
w: |

